X: 074
M: 3/4
L: 1/8
K: G
d2 |\
g3 f g2 | e3 f g2 | a3 B A2 | G2 z2 d2 |\
g3 f g2 | e3 f g2 | a3 d ^c2 | d2 z2 z2 |]\
d3 f a2 | c4 a2 | Tc3 B c2 | B6 |
d3 B G2 | e3 c A2 | {g}Tf3 e f2 | g4 Bc |\
d3 B G2 | e3 c A2 | {g}f3 e f2 | g6 |]

